X:1
T:Thou Must Leave Thy Lowly Dwelling
T:The Shepherds' Farewell
T:Hector Berlioz
T:English Text: Paul England
T:(For Unison/Children/Solo. Original Key: E Major)
T:Text and Music: Public Domain
T:Text and Music: Public Domain
C:Hector Berlioz
Z:tr. Paul England
Z:Text and Music: Public Domain
%%score 1 { ( 2 4 ) | ( 3 5 ) }
L:1/8
Q:1/8=116
M:3/8
K:D
V:1 treble nm="Voice"
V:2 treble nm="Piano"
V:4 treble 
V:3 bass 
V:5 bass 
V:1
 z3 | z3 | z3 | z3 | F2 A | G2 B | (AG) F | E D ^D | E2 ^E | F2 D | (GA) B | E2 z | F2 D | G2 B | %14
w: ||||1.~Thou must|leave Thy|low- * ly|dwell- ing, The|humb- ble|crib, the|sta- * ble|bare,|Babe, all|mor- tal|
w: ||||2.~Bless- ed|Je- sus,|we _ im-|plore Thee With|hum- ble|love and|ho- * ly|fear,|In the|land that|
w: ||||3.~Blest are|ye be-|yond _ all|meas- ure, Thou|hap- py|fa- ther,|mo- * ther|mild!|Guard ye|well your|
 (EG) F | E D d | c2 B | A2 c | (BA) ^G | F2 z | =G2 E | G2 E | (GE) F | (FE) D | d2 B | c2 ^A | %26
w: babes _ ex-|cel- ling, Con-|tent our|earth- ly|lot _ to|share,|Lov- ing|fa- ther,|lov- * ing|mo- * ther,|Shel- ter|Thee with|
w: lies _ be-|fore Thee, For-|get not|us who|lin- * ger|here!|May the|shep- herd's|low- * ly|call- * ing,|Ev- er|to Thy|
w: Heav'n- * ly|Trea- sure, The|Prince of|Peace, the|Ho- * ly|Child!|God go|with you,|God _ pro-|tect _ you,|Guide you|safe- ly|
 (Bc) d | !fermata!e2 z | (e=f) d | (=cA) =F | (A_B) G | (=FD) _B, | A,2 D | =F2 E | (DG) =F | %35
w: ten- * der|care!|Lov- * ing|fa- * ther,|lov- * ing|mo- * ther,|Shel- ter|Thee with|ten- * der|
w: heart _ be|dear!|May _ the|shep- * herd's|low- * ly|call- * ing,|Ev- er|to Thy|heart _ be|
w: through _ the|wild!|God _ go|with _ you,|God _ pro-|tect _ you,|Guide you|safe- ly|through _ the|
 E2 z | A2 B | (AF) D | (FE3/2) D/ | D3 :| z3 | z3 | z3 | z3 | z3 | z3 |] %46
w: care,|shel- ter|Thee _ with|ten- * der|care!|||||||
w: dear,|ev- er|to _ Thy|heart _ be|dear!|||||||
w: wild,|guide you|safe- * ly|through _ the|wild!|||||||
V:2
{/[^E^G]} [FA]3 |{/[^E^G]} [FA]3 | ([EG][B,D])[CE] | [DF]3 | (F2 A) | (G2 B) | (AGF) | (ED)^D | %8
 E2 ((^E | F2)) =D | (GAB) | E2 z | (F2 D) | (G2 B) | (EG)F | ED (d | c2) B | (A2 c) | (BA^G | %19
 F2) x | (G2 E) | (G2 E) | GEF | FED | d2 B | c2 ^A | Bcd | (!fermata!e3- | e=f)d | (=cA)=F | %30
 (A_B)G | (=FD)_B, | A,2 D | (=F2 E | D)(G=F | E2) z | A2 =B | AFD | FE>D | D3 :|{/[^E^G]} [FA]3 | %41
{/[^E^G]} [FA]3 | ([EG][B,D])[CE] | [DF]3- | [DF]3- | [DF]3 |] %46
V:3
 [D,A,]3 | [D,A,]3 | [G,B,]3 | [D,A,]3 | D,2 D, | D,2 E, | x3 | G,G,F, | G,2 D, | D,2 D, | x3 | %11
 x3 | z A,F, | z D,D, | A, x x | x2 E, | E,2 ^E, | F,2 F, | F,2 ^G, | x2 x | B,2 (B, | _B,2) B, | %22
 A,2 A, | G,2 D, | x3 | x3 | x E,F, | G,3 | A,2 =F, | A,=CA, | D2 _B, | _B,=F,F, | =E, =F,2 | %33
 =F,2 G, | x3 | (G, E,2) | E,2 E, | ^F,2 F, | x3 | x3 :| [D,A,]3 | [D,A,]3 | [G,B,]3 | [D,A,]3- | %44
 [D,A,]3- | [D,A,]3 |] %46
V:4
 x3 | x3 | x3 | x3 | A,DF | D2 D/C/ | [A,D]2 [A,C] | B,2 B, | B,2 (B, | A,2) A, | [B,E]2 [B,D] | %11
 [A,C]2 z | z DA, | z (DG) | z [A,E][A,D] | [^A,C]B, B- | BA^G- | ^GFA | ^GF^E | A,2 z | E2 E | %21
 E2 E | E2 D | B,2 A, | z [DG][DF] | [EG]2 [CF] | [DF]^AB | c3 | (=c2 _B) | A=F=C | =F2 _E | %31
 D_B,=F, | A,2 _B, | =CD_B, | A,[A,^C][A,D] | D3 | ^C2 G | ^FDD | [A,D][G,C]>[F,A,] | [F,A,]3 :| %40
 x3 | x3 | x3 | x3 | x3 | x3 |] %46
V:5
 x3 | x3 | x3 | x3 | [D,,A,,]2 [D,,A,,] | B,,2 G,, | F,,G,,A,, | B,,B,,A,, | G,,2 G,, | F,,2 F,, | %10
 E,,F,,G,, | A,,2 z | =C,3 | B,,3 | (^C,2 D,) | G,,2 ^G,, | A,,/B,,/C,D, | C,A,,F,, | B,,C,>C, | %19
 F,,2 z | (E,3 | D,3 | C,2 D,) | (G,,2 F,,) | B,,2 B,, | E,2 E, | (D,C,B,,) | ^A,,3 | %28
 (=A,,2 _B,,) | =F,2 F, | (D,2 _E,) | _B,,2 (D, | ^C,D,)(_B,, | A,,_B,,)G,, | (=F,,E,,D,,) | %35
 (G,,A,,_B,,) | (A,,2 G,,) | (D,2 =B,,) | A,,(A,,>D,,) | D,,3 :| x3 | x3 | x3 | x3 | x3 | x3 |] %46

